X: 3
T: Reel St. Antoinne (R-132)
I: Reel St. Antoinne	R-132	A	reel
R: reel
M: C|
K: A
"A"a3a aece| aaa2-aece| agfe "A#o"dcBA| "Bm"GABc "E7"defg|
"A"a3a aece| agab aece| agfe "Bm"dcBA| "E7"GABc "A"A4 :|
|:"A"c3c cAce| dcBA "A#o"GABc| "Bm"d3d dBdf| edcB AGAB|
"F#m"c3c cAce| "Bm"dcBA GABc| "E7"defg afed| cdBc "A"A4 :|]
%%text 09/28/00 

#include "LeftHeader.h"
%%footer 10/31/00 For use only by Roaring Jelly members
% ---------- set 60 ----------
% Timmy Clifford's (G) / Handsome Young Lasses (A) / Cliffs of Moher (Ador)
%%text Set 60
%%scale .67
